app/assets/icons/polaris/DiscountAutomaticMajor.svg

<svg viewBox="0 0 20 20" xmlns="http://www.w3.org/2000/svg"><path d="m8.707 7.707 6-6a1 1 0 0 0-1.414-1.414l-6 6a1 1 0 0 0 1.414 1.414z"/><path fill-rule="evenodd" d="M2 0a1 1 0 0 0 0 2h1v12.17a3.001 3.001 0 1 0 3.83 1.83h5.34a3 3 0 1 0 2.83-2h-10v-2h11.566a1.5 1.5 0 0 0 1.485-1.288l.939-6.57a1 1 0 0 0-1.98-.283l-.877 6.141h-11.133v-8.5a1.5 1.5 0 0 0-1.5-1.5h-1.5zm13 16a1 1 0 1 0 0 2 1 1 0 0 0 0-2zm-11 0a1 1 0 1 0 0 2 1 1 0 0 0 0-2z"/><path d="M8.5 3a1.5 1.5 0 1 0 0-3 1.5 1.5 0 0 0 0 3zm6.5 3.5a1.5 1.5 0 1 1-3 0 1.5 1.5 0 0 1 3 0z"/></svg>

<svg viewBox="0 0 20 20" xmlns="http://www.w3.org/2000/svg"><path d="m8.707 7.707 6-6A1 1 0 0 0 13.293.293l-6 6a1 1 0 0 0 1.414 1.414z"/><path fill-rule="evenodd" d="M2 0a1 1 0 0 0 0 2h1v12.17A3.001 3.001 0 1 0 6.83 16h5.34A3 3 0 1 0 15 14H5v-2h11.566a1.5 1.5 0 0 0 1.485-1.288l.939-6.57a1 1 0 0 0-1.98-.283L16.133 10H5V1.5A1.5 1.5 0 0 0 3.5 0H2zm13 16a1 1 0 1 0 0 2 1 1 0 0 0 0-2zM4 16a1 1 0 1 0 0 2 1 1 0 0 0 0-2z"/><path d="M8.5 3a1.5 1.5 0 1 0 0-3 1.5 1.5 0 0 0 0 3zM15 6.5a1.5 1.5 0 1 1-3 0 1.5 1.5 0 0 1 3 0z"/></svg>
